X: 443
T:Sheikhani
O:Assyria
M:2/4
L:1/8
Q:1/4=180
I:percussion recommended for bass accompaniment
%%MIDI gchord fzfz
K:Am
|:"A" edec|d2c2            |AccB|A2A2 |\
  AccB    |A2d2            |cBcB|A2A2 :|
|:cdec    |d/e/d/e/d/e/d/e/|cdec|d2c2 |
  cdec    |d/e/d/e/d/e/d/e/|edec|d2c2 |
  BcBc    |BcBc            |BcBc|A2A2 :|
|:A^GAG   |ABcd            |cBcB|A2e2 |
  efde    |c2d2            |dcBc|A2A2 :|
  cdez    |d/e/d/e/d/e/d/e/|ezed|e2d2 |
  cdez    |d/e/d/e/d/e/d/e/|gzed|e2d2 |
  geze    |e/f/e/f/e2      |edez|d2c2 |
  eddz    |d2c2            |dcdz|d2c2 |
  eddz    |d2c2            |dcdz|d2A2 |



